X:177
T:Winsome Reel
M:2/2
L:1/8
C:Frederick E. Wilson copyright 2004
R:Reel
K:AMix
ed|:"A"cA AG A2 ed|cA AG "E"E2 ed|"A"cA AE Acec|"G"dB GB d2 ed|
"A"cA AG A2 ed | cA AG "E"E2 ed | "A"c2 cd ec Ac | 1 "G"dB GB d2 ed:|2 "
G"dB GB d2 cB||
"A"A2 eA "D"fedf|"A"ed cA "G"B2 AG|"A"A2 eA "D"dBGB | "A"cB Ac "G"B2 AG|
"A"A2 eA "D"fedf|"A"ed cA "G"G2 gf|"A"e2 ab ag ea | "G"(3gfe) fd "E"ec d
B:|
